X: 37742
T: Sollus Lillis
R: reel
M: 4/4
K: Cmajor
c2 Gc AcGA|(3ccc ec gcec|(3ccc Gc AcGc|eaag ed d2:|
|:ed (3ddd edcd|ed (3ddd eaag|ed (3ddd edcA|c3 d eaag|
ed (3ddd edcd|ed (3ddd eaag|ed (3ddd edcA|c3 d eage:|

